!!!!SEGMENT: pl-wtm--r-557-m_moniuszko-stanislaw--paria-no-title.krn
!!!cenid: 18xx:3045
!!!COM: Moniuszko, Stanisław
!!!COM-rismID: pe30008351
!!!CDT: 1819/05/05-1872/06/04
!!!CNT: Polish
!!!OPR: Paria
!!!OTL: [no title]
!!!PDT:
!!!AGN: Secular
!!!YEC: Copyright 2022 Narodowy Instytut Fryderyka Chopina (https://polishscores.org)
!!!YEM: License CC-BY-4.0 (https://creativecommons.org/licenses/by/4.0)
!!!SMS-siglum: PL-Wtm
!!!SMS-shelfmark: R 557/M
!!!SMS-shelfwork: M
!!!SMS-variant:
!!!SMS-altvar:
!!!NIFC-rismSourceID: 1001091080
!!!NIFC-rismChildID: 1001091080
!!!NIFC-islandoraID:
!!!URL-pdf-islandora:
!!!URL-scan:
!!!IIIF:
!!!ONB-nifc: UWAGA: skan 0017
!!!AIN: 2 forte 1 tenor
!!!key:
**kern	**kern	**dynam	**kern
*part3	*part2	*	*part1
*staff3	*staff2	*	*staff1
*Iforte	*Iforte	*	*Itenor
*I"[Fortepian]	*I"[Fortepian]	*	*I"[Tenor]
*clefF4	*clefG2	*	*clefF4
*k[f#]	*k[f#]	*	*k[f#]
*e:	*e:	*	*e:
*M4/4	*M4/4	*	*M4/4
*met(c)	*met(c)	*	*met(c)
=1	=1	=1	=1
*all\right	*all\right	*	*all\right
!	!LO:TX:t=P:problem=znak f#	!	!LO:TX:t=P:problem=klucz zamazany
!	!	!	!LO:TX:a:i:t=Allº
8.r	8.r	.	2r
!	!	!LO:DY:rj	!
16EKL 16EE/	16gKL 16e 16G/	f	.
!	!	!	!LO:TX:a:i:t=Chór
8.D#X 8.DD#X/	8.g 8.e 8.G/	.	.
16EJk 16EE/	16gJk 16e 16G/	.	.
!	!	!	!LO:TX:a:t=e
4E 4EE/	4g 4e 4G/	.	4e\
!	!	!	!LO:TX:a:t=E
4r	4r	.	4E\
=2	=2	=2	=2
*	*rep	*	*
8.r	8.r	.	4r
16CKL 16CC/	16gKL 16e 16G/	.	.
8.BB 8.BBB/	8.g 8.e 8.G/	.	8r
*	*	*	*clefF4
!	!	!	!LO:TX:a:i:t=Akebar
.	.	.	8G\
16CJk 16CC/	16gJk 16e 16G/	.	.
4C 4CC/	4g 4e 4G/	.	4.c\
4r	4r	.	.
.	.	.	8C/
*	*Xrep	*	*
=3	=3	=3	=3
8.r	8.r	.	4C/
16AA/KL	16aKL 16e 16c/	.	.
8.GG#X/	8.a 8.e 8.c/	.	4r
16AA/Jk	16aJk 16e 16c/	.	.
4AA/	4a 4e 4c/	.	4r
4r	4r	.	8.A\
.	.	.	16A\
!!LO:LB:g=original
=4	=4	=4	=4
*	*tremolo	*	*
!	!	!LO:DY:rj	!LO:TX:a:i:t=Recit
[2FF#/	32aLLL 32d 32c/	fp	4.d\
.	32a 32d 32c/	.	.
.	32a 32d 32c/	.	.
.	32a 32d 32c/	.	.
.	32a 32d 32c/	.	.
.	32a 32d 32c/	.	.
.	32a 32d 32c/	.	.
.	32a 32d 32c/	.	.
.	32a 32d 32c/	.	.
.	32a 32d 32c/	.	.
.	32a 32d 32c/	.	.
.	32a 32d 32c/	.	.
.	32a 32d 32c/	.	8G\
.	32a 32d 32c/	.	.
.	32a 32d 32c/	.	.
.	32a 32d 32c/	.	.
4FF#/]	32a 32d 32c/	.	4A\
.	32a 32d 32c/	.	.
.	32a 32d 32c/	.	.
.	32a 32d 32c/	.	.
.	32a 32d 32c/	.	.
.	32a 32d 32c/	.	.
.	32a 32d 32c/	.	.
.	32a 32d 32c/	.	.
4r	32a 32d 32c/	.	8G\
.	32a 32d 32c/	.	.
.	32a 32d 32c/	.	.
.	32a 32d 32c/	.	.
.	32a 32d 32c/	.	8A\
.	32a 32d 32c/	.	.
.	32a 32d 32c/	.	.
.	32aJJJ 32d 32c/	.	.
=5	=5	=5	=5
1r	32aLLL 32d 32c/	.	4G\
.	32a 32d 32c/	.	.
.	32a 32d 32c/	.	.
.	32a 32d 32c/	.	.
.	32a 32d 32c/	.	.
.	32a 32d 32c/	.	.
.	32a 32d 32c/	.	.
.	32a 32d 32c/	.	.
.	32a 32d 32c/	.	4F#\
.	32a 32d 32c/	.	.
.	32a 32d 32c/	.	.
.	32a 32d 32c/	.	.
.	32a 32d 32c/	.	.
.	32a 32d 32c/	.	.
.	32a 32d 32c/	.	.
.	32aJJJ 32d 32c/	.	.
*	*Xtremolo	*	*
.	4a 4d 4c/	.	4F#\
.	4r	.	8G\
.	.	.	8A\
=6	=6	=6	=6
1r	1r	.	4A\
.	.	.	8D\
.	.	.	8D\
.	.	.	8C\
.	.	.	8E\
.	.	.	8G\
.	.	.	8c\
=7	=7	=7	=7
!	!	!	!LO:TX:a:i:t=a tempo. moderato
8.r	8.r	f	4B\
16GG/	16g 16d 16B/	.	.
4G\	4b 4g 4d/	.	8r
.	.	.	8BB/
2r	2r	.	8.C/
.	.	.	16D/
.	.	.	8.E\
.	.	.	16F#\
!!LO:LB:g=original
=8	=8	=8	=8
8.r	8.r	.	4G\
16BB| 16BBB/	16g| 16d/	.	.
4C 4CC^/	4g 4e 4c^/	.	8.r
.	.	.	16C/
2r	2r	.	8.D\
.	.	.	16E\
.	.	.	8.F#\
.	.	.	16G\
=9	=9	=9	=9
8.r	8.r	.	4A\
16C 16CC'/	16a| 16e/	.	.
4D 4DD^/	4a 4f# 4d^/	.	4A\
2r	2r	.	8.B\L
.	.	.	16G\Jk
.	.	.	8.F#\
.	.	.	16D\
=10	=10	=10	=10
*	*	*	*2\right
8.r	8.r	.	[2d\
16F# 16FF#'/	16dd 16a 16d'/	.	.
4F# 4FF#^/	4dd 4a 4d^/	.	.
8.r	8.r	.	8.d\]
!	!LO:TX:b:t=di-mi-ni-en-do.:problem=dynamics with extention lines	!LO:HP:t=di-mi-ni-en-do.	!
16F#\KL	16aKL 16d/	>	16A\
8.G\	8.b 8.d/	.	8.B\
16D\Jk	16f#Jk 16B/	.	16F#\
!!LO:LB:g=original
=11	=11	=11	=11
8.E\L	8.gL 8.B/	.	8.G\
16BB\K	16d#XK 16G</	.	16D#X\
8.C\	8.e 8.G</	.	8E\
.	.	.	8G\
16CJk 16CC\	16gJk 16e/	.	.
4BB 4BBB/	4b 4g 4e/	]	4.B\
4BB\	4d# 4B< 4F#</	.	.
.	.	.	8B\
=12	=12	=12	=12
*^	*^	*	*
*tremolo	*	*	*	*	*
!	!	!	!	!LO:DY:rj:t=fp.	!LO:N:vis=2
32ELLL 32EE/	(4EE/	1e	(4e\	fp	4E\
32E 32EE/	.	.	.	.	.
32E 32EE/	.	.	.	.	.
32E 32EE/	.	.	.	.	.
32E 32EE/	.	.	.	.	.
32E 32EE/	.	.	.	.	.
32E 32EE/	.	.	.	.	.
32E 32EE/	.	.	.	.	.
32E 32EE/	8FF#/L	.	8d#X\L	.	4r
32E 32EE/	.	.	.	.	.
32E 32EE/	.	.	.	.	.
32E 32EE/	.	.	.	.	.
32E 32EE/	8GG#X/J	.	8dn\J	.	.
32E 32EE/	.	.	.	.	.
32E 32EE/	.	.	.	.	.
32E 32EE/	.	.	.	.	.
32E 32EE/	8AA/L	.	8c#X\L	.	2r
32E 32EE/	.	.	.	.	.
32E 32EE/	.	.	.	.	.
32E 32EE/	.	.	.	.	.
!	!	!	!LO:TX:a:t=c.	!	!
32E 32EE/	8AA#X/	.	8cn\	.	.
32E 32EE/	.	.	.	.	.
32E 32EE/	.	.	.	.	.
32E 32EE/	.	.	.	.	.
!	!	!	!LO:TX:a:t=b.	!	!
32E 32EE/	8BB/	.	8B\	.	.
32E 32EE/	.	.	.	.	.
32E 32EE/	.	.	.	.	.
32E 32EE/	.	.	.	.	.
!	!	!	!LO:TX:a:t=g.	!	!
32E 32EE/	8E/J)	.	8g\J)	.	.
32E 32EE/	.	.	.	.	.
32E 32EE/	.	.	.	.	.
32EJJJ 32EE/	.	.	.	.	.
*v	*v	*	*	*	*
=13	=13	=13	=13	=13
2EE/	2e/	2ryy	.	1r
*2\right	*	*2\right	*	*
!LO:TX:t=167:color=blue	!	!	!	!LO:TX:t=P:problem=na końcu strony we wszystkich głosach zmiana tonacji i nowe metrum3/4.
2BB 2EE\	2e^/	2d 2B< 2G#X</	.	.
*	*v	*v	*	*
==	==	==	==
*-	*-	*-	*-
!!!system-decoration: {<s1>(s2,s3)}
!!!RDF**kern: > = above
!!!RDF**kern: < = below
!!!RDF**kern: | = vertical stroke
!!!ENC: Anastazja Marusiak
!!!END: 2021-09-08
!!!ENC: Marta Lawrence
!!!END: 2021-10-20
